X: 1
T: Whiskers
O: Walsh 1713
S: Barnes v.2 p.142
R: reel
Z: 2013 John Chambers <jc:trillian.mit.edu>
M: 2/4
L: 1/16
K: G
d2 |\
"G"B3A B2AG | "D7"d2d2 d2ef |\
"G"g2fe "D7"d2c2 | B4 z2 :: g2 |\
"D7"ABcB A2A2 | A4 z2 :|
|: d2 |\
"G"gded eded | "Am"acdc dcdc |\
"G/b"gBcB cBcB | "C"A2G2 "D7"A2F2 | "G"G4 z2 :|

